icons/icn_azimutSol.svg

<svg width="24" xmlns="http://www.w3.org/2000/svg" height="24" id="screenshot-e387bb83-ae60-800e-8006-366ae6e63e4e" viewBox="0 0 24 24" xmlns:xlink="http://www.w3.org/1999/xlink" fill="none" version="1.1"><g id="shape-e387bb83-ae60-800e-8006-366ae6e63e4e"><g class="frame-container-wrapper"><g class="frame-container-blur"><g class="frame-container-shadows"><g fill="none"><g class="fills" id="fills-e387bb83-ae60-800e-8006-366ae6e63e4e"><rect rx="0" ry="0" x="0" y="0" width="24" height="24" transform="matrix(1, 0, 0, 1, 0, 0)" class="frame-background"/></g><g class="frame-children"><g id="shape-e387bb83-ae60-800e-8006-366ae6e63e70" rx="0" ry="0" style="fill: rgb(0, 0, 0);"><g id="shape-e387bb83-ae60-800e-8006-366ae6e63e71"><g class="fills" id="fills-e387bb83-ae60-800e-8006-366ae6e63e71"><path d="M2.2987794876098633,9.002208709716797C2.0873537063598633,9.002086639404297,1.8844728469848633,9.086071014404297,1.7350587844848633,9.235607147216797C1.5854005813598633,9.385143280029297,1.5014162063598633,9.588024139404297,1.5016603469848633,9.799449920654297C1.5014162063598633,10.010997772216797,1.5854005813598633,10.213878631591797,1.7350587844848633,10.363414764404297C1.8844728469848633,10.512950897216797,2.0873537063598633,10.596935272216797,2.2987794876098633,10.596691131591797C4.870800971984863,10.596691131591797,6.912549018859863,12.577281951904297,6.912549018859863,15.003673553466797C6.912549018859863,17.430187225341797,4.870800971984863,19.410655975341797,2.2987794876098633,19.410655975341797C2.0873537063598633,19.410533905029297,1.8844728469848633,19.494518280029297,1.7350587844848633,19.644054412841797C1.5854005813598633,19.793590545654297,1.5014162063598633,19.996471405029297,1.5016603469848633,20.207897186279297C1.5053224563598633,20.645519256591797,1.8612794876098633,20.998180389404297,2.2987794876098633,20.997814178466797C5.699414253234863,20.997814178466797,8.507031440734863,18.324840545654297,8.507031440734863,15.003673553466797C8.507031440734863,11.682628631591797,5.699414253234863,9.002208709716797,2.2987794876098633,9.002208709716797Z" style="display: inline; stroke-linecap: round; stroke-linejoin: round;"/></g></g><g id="shape-e387bb83-ae60-800e-8006-366ae6e63e72"><g class="fills" id="fills-e387bb83-ae60-800e-8006-366ae6e63e72"><path d="M6.623730659484863,2.005138874053955C6.198681831359863,2.004650592803955,5.852978706359863,2.347668170928955,5.850293159484863,2.772716999053955C5.850049018859863,2.977917194366455,5.931347846984863,3.174816608428955,6.076611518859863,3.319958209991455C6.221631050109863,3.464977741241455,6.418408393859863,3.546398639678955,6.623730659484863,3.546154499053955L16.21357536315918,3.546154499053955C18.78535270690918,3.546154499053955,20.93037223815918,5.881969928741455,20.93037223815918,8.876232147216797C20.93037223815918,11.870494842529297,18.78535270690918,14.206310272216797,16.21357536315918,14.206310272216797L13.362011909484863,14.206310272216797L15.031933784484863,12.530529022216797C15.173047065734863,12.389781951904297,15.252392768859863,12.198619842529297,15.252392768859863,11.999279022216797C15.252392768859863,11.799938201904297,15.173047065734863,11.608776092529297,15.031933784484863,11.468029022216797C14.739697456359863,11.179088592529297,14.269482612609863,11.179088592529297,13.977246284484863,11.468029022216797L10.973340034484863,14.471935272216797C10.832226753234863,14.612682342529297,10.752881050109863,14.803844451904297,10.752881050109863,15.003185272216797C10.752881050109863,15.202526092529297,10.832226753234863,15.393688201904297,10.973340034484863,15.534435272216797L13.977246284484863,18.532482147216797C14.269482612609863,18.821422576904297,14.739697456359863,18.821422576904297,15.031933784484863,18.532482147216797C15.173047065734863,18.391735076904297,15.252392768859863,18.200572967529297,15.252392768859863,18.001232147216797C15.252392768859863,17.801891326904297,15.173047065734863,17.610729217529297,15.031933784484863,17.469982147216797L13.313183784484863,15.749279022216797L16.21357536315918,15.749279022216797C19.71259880065918,15.749279022216797,22.48115348815918,12.622570037841797,22.48115348815918,8.876232147216797C22.48115348815918,5.129894733428955,19.71259880065918,2.005138874053955,16.21357536315918,2.005138874053955Z" style="display: inline; stroke-linecap: round; stroke-linejoin: round;"/></g></g><g id="shape-e387bb83-ae60-800e-8006-366ae6e63e73"><g class="fills" id="fills-e387bb83-ae60-800e-8006-366ae6e63e73"><path d="M10.529736518859863,19.469738006591797C10.387890815734863,19.329357147216797,10.196240425109863,19.251232147216797,9.996533393859863,19.252696990966797C9.797070503234863,19.254161834716797,9.606396675109863,19.334972381591797,9.466748237609863,19.477306365966797C9.179150581359863,19.771739959716797,9.182568550109863,20.242687225341797,9.474316596984863,20.532970428466797L11.496777534484863,22.533214569091797C11.638379096984863,22.673595428466797,11.830273628234863,22.751720428466797,12.029736518859863,22.750255584716797C12.229199409484863,22.748912811279297,12.419873237609863,22.668102264404297,12.559765815734863,22.525646209716797C12.847119331359863,22.231334686279297,12.843701362609863,21.760265350341797,12.552197456359863,21.470104217529297Z" style="display: inline; stroke-linecap: round; stroke-linejoin: round;"/></g></g><g id="shape-e387bb83-ae60-800e-8006-366ae6e63e74"><g class="fills" id="fills-e387bb83-ae60-800e-8006-366ae6e63e74"><path d="M12.035595893859863,7.415173053741455L9.533154487609863,9.415660858154297C9.377148628234863,9.539806365966797,9.277295112609863,9.720836639404297,9.255078315734863,9.918956756591797C9.232861518859863,10.116954803466797,9.290478706359863,10.315685272216797,9.414990425109863,10.471202850341797C9.539258003234863,10.627086639404297,9.720166206359863,10.727184295654297,9.918408393859863,10.749401092529297C10.116406440734863,10.771495819091797,10.315136909484863,10.714000701904297,10.470654487609863,10.589366912841797L12.973095893859863,8.588878631591797C13.129101753234863,8.464733123779297,13.229199409484863,8.283580780029297,13.251172065734863,8.085582733154297C13.273388862609863,7.887463092803955,13.215771675109863,7.688732624053955,13.091259956359863,7.533215045928955C12.966992378234863,7.377331256866455,12.786084175109863,7.277233600616455,12.587841987609863,7.255138874053955C12.389843940734863,7.232922077178955,12.191113471984863,7.290539264678955,12.035595893859863,7.415173053741455Z" style="display: inline; stroke-linecap: round; stroke-linejoin: round;"/></g></g><g id="shape-e387bb83-ae60-800e-8006-366ae6e63e75"><g class="fills" id="fills-e387bb83-ae60-800e-8006-366ae6e63e75"><path d="M2.5055665969848633,2.247814655303955C2.3056154251098633,2.247082233428955,2.1137208938598633,2.326061725616455,1.9723634719848633,2.467419147491455C1.8310060501098633,2.608898639678955,1.7519044876098633,2.800793170928955,1.7526369094848633,3.000744342803955L1.7526369094848633,5.997814655303955C1.7519044876098633,6.197765827178955,1.8310060501098633,6.389782428741455,1.9723634719848633,6.531139850616455C2.1137208938598633,6.672497272491455,2.3056154251098633,6.751598834991455,2.5055665969848633,6.750744342803955C2.9191408157348633,6.748302936553955,3.2528810501098633,6.411510944366455,3.2511720657348633,5.997814655303955L3.2511720657348633,3.000744342803955C3.2528810501098633,2.587170124053955,2.9191408157348633,2.250256061553955,2.5055665969848633,2.247814655303955Z" style="display: inline; stroke-linecap: round; stroke-linejoin: round;"/></g></g></g></g></g></g></g></g></g></svg>

<svg fill="none" viewBox="0 0 24 24"><g class="frame-container-wrapper"><g class="frame-container-blur"><g class="frame-container-shadows"><g class="fills"><rect width="24" height="24" class="frame-background" rx="0" ry="0"/></g><g fill="#000" class="frame-children"><path d="M2.2988 9.0022a.7963.7963 0 0 0-.5637.2334.7958.7958 0 0 0-.2334.5638.7959.7959 0 0 0 .2334.564.7957.7957 0 0 0 .5637.2333c2.572 0 4.6137 1.9806 4.6137 4.407 0 2.4265-2.0417 4.407-4.6137 4.407a.7963.7963 0 0 0-.5637.2334.7958.7958 0 0 0-.2334.5638.7965.7965 0 0 0 .797.79c3.4007 0 6.2083-2.673 6.2083-5.9942 0-3.321-2.8076-6.0015-6.2082-6.0015ZM6.6237 2.0051a.7726.7726 0 0 0-.7734.7676.7721.7721 0 0 0 .7734.7735h9.5899c2.5718 0 4.7168 2.3358 4.7168 5.33 0 2.9943-2.145 5.3301-4.7168 5.3301H13.362l1.67-1.6758a.7504.7504 0 0 0 0-1.0625.75.75 0 0 0-1.0548 0l-3.0039 3.004a.7504.7504 0 0 0 0 1.0624l3.004 2.998a.75.75 0 0 0 1.0546 0 .7504.7504 0 0 0 0-1.0624l-1.7187-1.7207h2.9004c3.499 0 6.2676-3.1267 6.2676-6.873 0-3.7464-2.7686-6.8712-6.2676-6.8712ZM10.5297 19.4697a.7498.7498 0 0 0-1.063.0076.7498.7498 0 0 0 .0076 1.0557l2.0225 2.0002a.7499.7499 0 0 0 1.063-.0076.7501.7501 0 0 0-.0076-1.0555Z" class="fills"/><path d="M12.0356 7.4152 9.5332 9.4157a.75.75 0 0 0-.1182 1.0555.75.75 0 0 0 1.0557.1182l2.5024-2.0005a.75.75 0 0 0 .1182-1.0557.7498.7498 0 0 0-1.0557-.118ZM2.5056 2.2478a.75.75 0 0 0-.753.753v2.997a.7504.7504 0 0 0 .753.753.75.75 0 0 0 .7456-.753v-2.997a.75.75 0 0 0-.7456-.753Z" class="fills"/></g></g></g></g></svg>
